; generated by PrusaSlicer 2.3.0 on 2021-04-19 at 11:57:00 UTC

; 

; external perimeters extrusion width = 0.45mm
; perimeters extrusion width = 0.45mm
; infill extrusion width = 0.45mm
; solid infill extrusion width = 0.45mm
; top infill extrusion width = 0.40mm
; first layer extrusion width = 0.42mm

M73 P0 R92
M73 Q0 S93
M201 X1000 Y1000 Z200 E5000 ; sets maximum accelerations, mm/sec^2
M203 X200 Y200 Z12 E120 ; sets maximum feedrates, mm/sec
M204 P1250 R1250 T1250 ; sets acceleration (P, T) and retract acceleration (R), mm/sec^2
M205 X8.00 Y8.00 Z0.40 E4.50 ; sets the jerk limits, mm/sec
M205 S0 T0 ; sets the minimum extruding and travel feed rate, mm/sec
M107
;TYPE:Custom
M862.3 P "MK3SMMU2S" ; printer model check
M862.1 P0.4 ; nozzle diameter check
M115 U3.9.3 ; tell printer latest fw version
G90 ; use absolute coordinates
M83 ; extruder relative mode
M104 S225 ; set extruder temp
M140 S90 ; set bed temp
Tx
M190 S90 ; wait for bed temp
M109 S225 ; wait for extruder temp
G28 W ; home all without mesh bed level
G80 ; mesh bed leveling

;go outside print area
G1 Y-3.0 F1000.0
G1 Z0.4 F1000.0
; select extruder
Tc
; purge line
G1 X55.0 F2000.0
G1 Z0.3 F1000.0
G92 E0.0
G1 X240.0 E25.0 F2200.0
G1 Y-2.0 F1000.0
G1 X55.0 E25 F1400.0
G1 Z0.20 F1000.0
G1 X5.0 E4.0 F1000.0

M221 S95
G92 E0.0

; Don't change E values below. Excessive value can damage the printer.
M907 E430 ; set extruder motor current
G21 ; set units to millimeters
G90 ; use absolute coordinates
M83 ; use relative distances for extrusion
M900 K0.08 ; Filament gcode LA 1.5
M900 K45 ; Filament gcode LA 1.0
;LAYER_CHANGE
;Z:0.2
;HEIGHT:0.2
;BEFORE_LAYER_CHANGE
G92 E0.0
;0.2


G1 E-1.40000 F2100.000
G1 Z0.200 F10800.000
;AFTER_LAYER_CHANGE
;0.2
G1 Z0.400
G1 X74.698 Y76.748
G1 Z0.200
G1 E1.40000 F2100.000
M204 S1000
;TYPE:Skirt
;WIDTH:0.42
G1 F1200.000
G1 X76.028 Y76.234 E0.04470
G1 X77.075 Y76.038 E0.03340
G1 X77.782 Y75.998 E0.02220
G1 X172.204 Y75.998 E2.96054
G1 X173.451 Y76.114 E0.03926
G1 X174.661 Y76.459 E0.03948
G1 X175.785 Y77.019 E0.03936
G1 X176.794 Y77.784 E0.03971
G1 X177.631 Y78.704 E0.03900
G1 X178.298 Y79.786 E0.03983
G1 X178.748 Y80.957 E0.03936
G1 X178.980 Y82.264 E0.04161
G1 X178.977 Y127.779 E1.42708
G1 X178.869 Y128.533 E0.02387
G1 X178.578 Y129.561 E0.03352
G1 X177.935 Y130.855 E0.04529
G1 X177.289 Y131.711 E0.03364
G1 X176.782 Y132.227 E0.02268
G1 X176.222 Y132.684 E0.02268
G1 X175.302 Y133.252 E0.03388
G1 X173.972 Y133.766 E0.04470
G1 X172.925 Y133.962 E0.03340
G1 X172.218 Y134.002 E0.02220
G1 X77.731 Y134.001 E2.96257
G1 X76.647 Y133.902 E0.03414
G1 X75.927 Y133.739 E0.02316
G1 X74.867 Y133.336 E0.03555
G1 X74.222 Y132.985 E0.02304
G1 X73.617 Y132.562 E0.02316
G1 X72.783 Y131.793 E0.03555
G1 X72.316 Y131.222 E0.02316
G1 X71.748 Y130.302 E0.03388
G1 X71.235 Y128.976 E0.04458
G1 X71.039 Y127.929 E0.03340
G1 X70.998 Y127.237 E0.02172
G1 X71.020 Y82.259 E1.41026
G1 X71.290 Y80.834 E0.04549
G1 X71.678 Y79.836 E0.03356
G1 X72.060 Y79.151 E0.02459
G1 X72.708 Y78.292 E0.03376
G1 X73.218 Y77.773 E0.02280
G1 X73.778 Y77.316 E0.02268
G1 X74.647 Y76.779 E0.03200
; printing object ShoeBottom.stl id:0 copy 0
;WIPE_START
G1 F8640.000
G1 X76.028 Y76.234 E-0.34280
G1 X77.075 Y76.038 E-0.24598
G1 X77.782 Y75.998 E-0.16350
G1 X80.284 Y75.998 E-0.57772
;WIPE_END
G1 E-0.07000 F2100.000
G1 Z0.400 F10800.000
G1 X162.583 Y118.605
G1 Z0.200
G1 E1.40000 F2100.000
;TYPE:Perimeter
G1 F1200.000
G1 X162.926 Y118.133 E0.01829
G1 X163.360 Y117.742 E0.01829
G1 X163.865 Y117.451 E0.01829
G1 X164.411 Y117.273 E0.01799
G1 X164.784 Y117.222 E0.01182
G1 X165.294 Y117.225 E0.01599
G1 X165.862 Y117.346 E0.01823
G1 X166.395 Y117.583 E0.01829
G1 X166.855 Y117.917 E0.01781
G1 X167.083 Y118.145 E0.01012
G1 X167.417 Y118.605 E0.01781
G1 X167.654 Y119.138 E0.01829
G1 X167.775 Y119.708 E0.01829
G1 X167.775 Y120.292 E0.01829
G1 X167.654 Y120.862 E0.01829
G1 X167.423 Y121.381 E0.01781
G1 X167.247 Y121.652 E0.01012
G1 X166.867 Y122.074 E0.01781
G1 X166.395 Y122.417 E0.01829
G1 X165.862 Y122.654 E0.01829
G1 X165.292 Y122.775 E0.01829
G1 X164.708 Y122.775 E0.01829
G1 X164.153 Y122.657 E0.01781
G1 X163.852 Y122.542 E0.01012
G1 X163.360 Y122.258 E0.01781
G1 X162.926 Y121.867 E0.01829
G1 X162.583 Y121.395 E0.01829
G1 X162.346 Y120.862 E0.01829
G1 X162.225 Y120.292 E0.01829
G1 X162.225 Y119.708 E0.01829
G1 X162.346 Y119.138 E0.01829
G1 X162.559 Y118.660 E0.01641
G1 X162.903 Y118.813 F10800.000
;TYPE:External perimeter
G1 F1200.000
G1 X163.208 Y118.386 E0.01643
G1 X163.583 Y118.049 E0.01581
G1 X164.019 Y117.797 E0.01581
G1 X164.495 Y117.642 E0.01570
G1 X164.809 Y117.599 E0.00991
G1 X165.253 Y117.602 E0.01393
G1 X165.745 Y117.707 E0.01578
G1 X166.206 Y117.912 E0.01581
G1 X166.609 Y118.205 E0.01563
G1 X166.795 Y118.391 E0.00826
G1 X167.088 Y118.794 E0.01563
G1 X167.293 Y119.255 E0.01581
G1 X167.398 Y119.748 E0.01581
G1 X167.398 Y120.252 E0.01581
G1 X167.293 Y120.745 E0.01581
G1 X167.091 Y121.201 E0.01563
G1 X166.947 Y121.422 E0.00826
G1 X166.614 Y121.792 E0.01563
G1 X166.206 Y122.088 E0.01581
G1 X165.745 Y122.293 E0.01581
G1 X165.252 Y122.398 E0.01581
G1 X164.748 Y122.398 E0.01581
G1 X164.260 Y122.295 E0.01563
G1 X164.014 Y122.200 E0.00826
G1 X163.583 Y121.951 E0.01563
G1 X163.208 Y121.614 E0.01581
G1 X162.912 Y121.206 E0.01581
G1 X162.707 Y120.745 E0.01581
G1 X162.602 Y120.252 E0.01581
G1 X162.602 Y119.748 E0.01581
G1 X162.707 Y119.255 E0.01581
G1 X162.879 Y118.868 E0.01329
G1 X162.701 Y118.468 F10800.000
;WIPE_START
G1 F8640.000
G1 X163.208 Y118.386 E-0.13461
G1 X163.583 Y118.049 E-0.11640
G1 X164.019 Y117.797 E-0.11641
G1 X164.495 Y117.642 E-0.11560
G1 X164.809 Y117.599 E-0.07301
G1 X165.253 Y117.602 E-0.10258
G1 X165.745 Y117.707 E-0.11624
G1 X166.206 Y117.912 E-0.11640
G1 X166.609 Y118.205 E-0.11512
G1 X166.795 Y118.391 E-0.06081
G1 X167.088 Y118.794 E-0.11512
G1 X167.293 Y119.255 E-0.11640
G1 X167.322 Y119.387 E-0.03129
;WIPE_END
G1 E-0.07000 F2100.000
G1 Z0.400 F10800.000
G1 X164.708 Y92.775
M73 Q0 S92
G1 Z0.200
G1 E1.40000 F2100.000
;TYPE:Perimeter
G1 F1200.000
G1 X164.138 Y92.654 E0.01829
G1 X163.619 Y92.423 E0.01781
G1 X163.348 Y92.247 E0.01012
G1 X162.926 Y91.867 E0.01781
G1 X162.583 Y91.395 E0.01829
G1 X162.346 Y90.862 E0.01829
G1 X162.225 Y90.292 E0.01829
G1 X162.225 Y89.708 E0.01829
G1 X162.346 Y89.138 E0.01829
G1 X162.583 Y88.605 E0.01829
G1 X162.926 Y88.133 E0.01829
G1 X163.360 Y87.742 E0.01829
G1 X163.865 Y87.451 E0.01829
G1 X164.411 Y87.273 E0.01799
G1 X164.784 Y87.222 E0.01182
G1 X165.294 Y87.225 E0.01599
G1 X165.862 Y87.346 E0.01823
G1 X166.395 Y87.583 E0.01829
G1 X166.855 Y87.917 E0.01781
G1 X167.083 Y88.145 E0.01012
G1 X167.417 Y88.605 E0.01781
G1 X167.654 Y89.138 E0.01829
G1 X167.775 Y89.708 E0.01829
G1 X167.775 Y90.292 E0.01829
G1 X167.654 Y90.862 E0.01829
G1 X167.417 Y91.395 E0.01829
G1 X167.074 Y91.867 E0.01829
G1 X166.652 Y92.247 E0.01781
G1 X166.381 Y92.423 E0.01012
G1 X165.862 Y92.654 E0.01781
G1 X165.292 Y92.775 E0.01829
G1 X164.768 Y92.775 E0.01641
G1 X164.768 Y92.398 F10800.000
;TYPE:External perimeter
G1 F1200.000
G1 X164.255 Y92.293 E0.01643
G1 X163.799 Y92.091 E0.01563
G1 X163.578 Y91.947 E0.00826
G1 X163.208 Y91.614 E0.01563
G1 X162.912 Y91.206 E0.01581
G1 X162.707 Y90.745 E0.01581
G1 X162.602 Y90.252 E0.01581
G1 X162.602 Y89.748 E0.01581
G1 X162.707 Y89.255 E0.01581
G1 X162.912 Y88.794 E0.01581
G1 X163.208 Y88.386 E0.01581
G1 X163.583 Y88.049 E0.01581
G1 X164.019 Y87.797 E0.01581
G1 X164.495 Y87.642 E0.01570
G1 X164.809 Y87.599 E0.00991
G1 X165.253 Y87.602 E0.01393
G1 X165.745 Y87.707 E0.01578
G1 X166.206 Y87.912 E0.01581
G1 X166.609 Y88.205 E0.01563
G1 X166.795 Y88.391 E0.00826
G1 X167.088 Y88.794 E0.01563
G1 X167.293 Y89.255 E0.01581
G1 X167.398 Y89.748 E0.01581
G1 X167.398 Y90.252 E0.01581
G1 X167.293 Y90.745 E0.01581
G1 X167.088 Y91.206 E0.01581
G1 X166.792 Y91.614 E0.01581
G1 X166.422 Y91.947 E0.01563
G1 X166.201 Y92.091 E0.00826
G1 X165.745 Y92.293 E0.01563
G1 X165.252 Y92.398 E0.01581
G1 X164.828 Y92.398 E0.01329
G1 X164.535 Y92.723 F10800.000
;WIPE_START
G1 F8640.000
G1 X164.255 Y92.293 E-0.13461
G1 X163.799 Y92.091 E-0.11512
G1 X163.578 Y91.947 E-0.06081
G1 X163.208 Y91.614 E-0.11512
G1 X162.912 Y91.206 E-0.11640
G1 X162.707 Y90.745 E-0.11640
G1 X162.602 Y90.252 E-0.11640
G1 X162.602 Y89.748 E-0.11640
G1 X162.707 Y89.255 E-0.11640
G1 X162.912 Y88.794 E-0.11640
G1 X163.208 Y88.386 E-0.11640
G1 X163.496 Y88.127 E-0.08950
;WIPE_END
G1 E-0.07000 F2100.000
G1 Z0.400 F10800.000
G1 X87.775 Y90.292
G1 Z0.200
G1 E1.40000 F2100.000
;TYPE:Perimeter
G1 F1200.000
G1 X87.654 Y90.862 E0.01829
G1 X87.423 Y91.381 E0.01781
G1 X87.247 Y91.652 E0.01012
G1 X86.867 Y92.074 E0.01781
G1 X86.395 Y92.417 E0.01829
G1 X85.862 Y92.654 E0.01829
G1 X85.292 Y92.775 E0.01829
G1 X84.708 Y92.775 E0.01829
G1 X84.138 Y92.654 E0.01829
G1 X83.619 Y92.423 E0.01781
G1 X83.348 Y92.247 E0.01012
G1 X82.926 Y91.867 E0.01781
G1 X82.583 Y91.395 E0.01829
G1 X82.346 Y90.862 E0.01829
G1 X82.225 Y90.292 E0.01829
G1 X82.225 Y89.708 E0.01829
G1 X82.346 Y89.138 E0.01829
G1 X82.583 Y88.605 E0.01829
G1 X82.926 Y88.133 E0.01829
G1 X83.360 Y87.742 E0.01829
G1 X83.865 Y87.451 E0.01829
G1 X84.411 Y87.273 E0.01799
G1 X84.784 Y87.222 E0.01182
G1 X85.294 Y87.225 E0.01599
G1 X85.862 Y87.346 E0.01823
G1 X86.395 Y87.583 E0.01829
G1 X86.867 Y87.926 E0.01829
G1 X87.247 Y88.348 E0.01781
G1 X87.423 Y88.619 E0.01012
G1 X87.654 Y89.138 E0.01781
G1 X87.775 Y89.708 E0.01829
G1 X87.775 Y90.232 E0.01641
G1 X87.398 Y90.232 F10800.000
;TYPE:External perimeter
G1 F1200.000
G1 X87.293 Y90.745 E0.01643
G1 X87.091 Y91.201 E0.01563
G1 X86.947 Y91.422 E0.00826
G1 X86.614 Y91.792 E0.01563
G1 X86.206 Y92.088 E0.01581
G1 X85.745 Y92.293 E0.01581
G1 X85.252 Y92.398 E0.01581
G1 X84.748 Y92.398 E0.01581
G1 X84.255 Y92.293 E0.01581
G1 X83.799 Y92.091 E0.01563
G1 X83.578 Y91.947 E0.00826
G1 X83.208 Y91.614 E0.01563
G1 X82.912 Y91.206 E0.01581
G1 X82.707 Y90.745 E0.01581
G1 X82.602 Y90.252 E0.01581
G1 X82.602 Y89.748 E0.01581
G1 X82.707 Y89.255 E0.01581
G1 X82.912 Y88.794 E0.01581
G1 X83.208 Y88.386 E0.01581
G1 X83.583 Y88.049 E0.01581
G1 X84.019 Y87.797 E0.01581
G1 X84.495 Y87.642 E0.01570
G1 X84.809 Y87.599 E0.00991
G1 X85.253 Y87.602 E0.01393
G1 X85.745 Y87.707 E0.01578
G1 X86.206 Y87.912 E0.01581
G1 X86.614 Y88.208 E0.01581
G1 X86.947 Y88.578 E0.01563
G1 X87.091 Y88.799 E0.00826
G1 X87.293 Y89.255 E0.01563
G1 X87.398 Y89.748 E0.01581
G1 X87.398 Y90.172 E0.01329
G1 X87.723 Y90.465 F10800.000
;WIPE_START
G1 F8640.000
G1 X87.293 Y90.745 E-0.13461
G1 X87.091 Y91.201 E-0.11512
G1 X86.947 Y91.422 E-0.06081
G1 X86.614 Y91.792 E-0.11512
G1 X86.206 Y92.088 E-0.11640
G1 X85.745 Y92.293 E-0.11640
G1 X85.252 Y92.398 E-0.11640
G1 X84.748 Y92.398 E-0.11640
G1 X84.255 Y92.293 E-0.11640
G1 X83.799 Y92.091 E-0.11512
G1 X83.578 Y91.947 E-0.06081
G1 X83.208 Y91.614 E-0.11512
G1 X83.128 Y91.504 E-0.03125
;WIPE_END
G1 E-0.07000 F2100.000
G1 Z0.400 F10800.000
G1 X85.294 Y117.225
G1 Z0.200
G1 E1.40000 F2100.000
;TYPE:Perimeter
G1 F1200.000
G1 X85.862 Y117.346 E0.01823
G1 X86.395 Y117.583 E0.01829
G1 X86.867 Y117.926 E0.01829
G1 X87.247 Y118.348 E0.01781
G1 X87.423 Y118.619 E0.01012
G1 X87.654 Y119.138 E0.01781
G1 X87.775 Y119.708 E0.01829
G1 X87.775 Y120.292 E0.01829
G1 X87.654 Y120.862 E0.01829
G1 X87.423 Y121.381 E0.01781
G1 X87.247 Y121.652 E0.01012
G1 X86.867 Y122.074 E0.01781
G1 X86.395 Y122.417 E0.01829
G1 X85.862 Y122.654 E0.01829
G1 X85.292 Y122.775 E0.01829
G1 X84.708 Y122.775 E0.01829
G1 X84.153 Y122.657 E0.01781
G1 X83.852 Y122.542 E0.01012
G1 X83.360 Y122.258 E0.01781
G1 X82.926 Y121.867 E0.01829
G1 X82.583 Y121.395 E0.01829
G1 X82.346 Y120.862 E0.01829
G1 X82.225 Y120.292 E0.01829
G1 X82.225 Y119.708 E0.01829
G1 X82.346 Y119.138 E0.01829
G1 X82.583 Y118.605 E0.01829
G1 X82.926 Y118.133 E0.01829
G1 X83.360 Y117.742 E0.01829
G1 X83.865 Y117.451 E0.01829
G1 X84.411 Y117.273 E0.01799
G1 X84.784 Y117.222 E0.01182
G1 X85.234 Y117.225 E0.01411
G1 X85.231 Y117.602 F10800.000
;TYPE:External perimeter
G1 F1200.000
G1 X85.745 Y117.707 E0.01645
G1 X86.206 Y117.912 E0.01581
G1 X86.614 Y118.208 E0.01581
G1 X86.947 Y118.578 E0.01563
G1 X87.091 Y118.799 E0.00826
G1 X87.293 Y119.255 E0.01563
G1 X87.398 Y119.748 E0.01581
G1 X87.398 Y120.252 E0.01581
G1 X87.293 Y120.745 E0.01581
G1 X87.091 Y121.201 E0.01563
G1 X86.947 Y121.422 E0.00826
G1 X86.614 Y121.792 E0.01563
G1 X86.206 Y122.088 E0.01581
G1 X85.745 Y122.293 E0.01581
G1 X85.252 Y122.398 E0.01581
G1 X84.748 Y122.398 E0.01581
G1 X84.260 Y122.295 E0.01563
G1 X84.014 Y122.200 E0.00826
G1 X83.583 Y121.951 E0.01563
G1 X83.208 Y121.614 E0.01581
G1 X82.912 Y121.206 E0.01581
G1 X82.707 Y120.745 E0.01581
G1 X82.602 Y120.252 E0.01581
G1 X82.602 Y119.748 E0.01581
G1 X82.707 Y119.255 E0.01581
G1 X82.912 Y118.794 E0.01581
G1 X83.208 Y118.386 E0.01581
G1 X83.583 Y118.049 E0.01581
G1 X84.019 Y117.797 E0.01581
G1 X84.495 Y117.642 E0.01570
G1 X84.809 Y117.599 E0.00991
G1 X85.171 Y117.601 E0.01137
G1 X85.470 Y117.281 F10800.000
;WIPE_START
G1 F8640.000
G1 X85.745 Y117.707 E-0.13476
G1 X86.206 Y117.912 E-0.11640
G1 X86.614 Y118.208 E-0.11640
G1 X86.947 Y118.578 E-0.11512
G1 X87.091 Y118.799 E-0.06081
G1 X87.293 Y119.255 E-0.11512
G1 X87.398 Y119.748 E-0.11640
G1 X87.398 Y120.252 E-0.11640
G1 X87.293 Y120.745 E-0.11640
G1 X87.091 Y121.201 E-0.11512
G1 X86.947 Y121.422 E-0.06081
G1 X86.614 Y121.792 E-0.11512
G1 X86.505 Y121.871 E-0.03110
;WIPE_END
G1 E-0.07000 F2100.000
G1 Z0.400 F10800.000
G1 X75.608 Y129.682
G1 Z0.200
G1 E1.40000 F2100.000
;TYPE:Perimeter
G1 F1200.000
G1 X75.316 Y129.389 E0.01297
G1 X75.057 Y129.052 E0.01334
G1 X74.876 Y128.753 E0.01095
G1 X74.702 Y128.371 E0.01317
G1 X74.579 Y127.965 E0.01331
G1 X74.516 Y127.621 E0.01094
G1 X74.487 Y127.176 E0.01399
G1 X74.487 Y82.828 E1.39052
G1 X74.530 Y82.281 E0.01719
G1 X74.619 Y81.880 E0.01289
G1 X74.805 Y81.389 E0.01646
G1 X75.002 Y81.029 E0.01288
G1 X75.318 Y80.608 E0.01647
G1 X75.611 Y80.316 E0.01297
G1 X75.948 Y80.057 E0.01334
G1 X76.247 Y79.876 E0.01095
G1 X76.629 Y79.702 E0.01317
G1 X77.035 Y79.579 E0.01331
G1 X77.379 Y79.516 E0.01094
G1 X77.824 Y79.487 E0.01399
G1 X172.291 Y79.492 E2.96195
G1 X172.625 Y79.516 E0.01051
G1 X173.117 Y79.617 E0.01574
G1 X173.526 Y79.767 E0.01367
G1 X173.748 Y79.873 E0.00771
G1 X174.052 Y80.057 E0.01114
G1 X174.395 Y80.320 E0.01355
G1 X174.570 Y80.487 E0.00760
G1 X174.853 Y80.818 E0.01363
G1 X174.992 Y81.018 E0.00765
G1 X175.201 Y81.399 E0.01362
G1 X175.294 Y81.619 E0.00750
G1 X175.443 Y82.131 E0.01670
G1 X175.502 Y82.548 E0.01322
G1 X175.513 Y82.816 E0.00842
G1 X175.501 Y127.464 E1.39989
M73 P1 R92
M73 Q1 S92
G1 X175.442 Y127.872 E0.01294
G1 X175.327 Y128.282 E0.01335
G1 X175.198 Y128.606 E0.01095
G1 X174.998 Y128.971 E0.01306
G1 X174.682 Y129.392 E0.01647
G1 X174.389 Y129.684 E0.01297
G1 X174.052 Y129.943 E0.01334
G1 X173.753 Y130.124 E0.01095
G1 X173.371 Y130.298 E0.01317
G1 X172.965 Y130.421 E0.01331
G1 X172.621 Y130.484 E0.01094
G1 X172.176 Y130.513 E0.01399
G1 X77.828 Y130.513 E2.95823
M73 P1 R91
G1 X77.281 Y130.470 E0.01719
G1 X76.880 Y130.381 E0.01289
G1 X76.389 Y130.195 E0.01646
G1 X76.029 Y129.998 E0.01288
G1 X75.656 Y129.718 E0.01459
G1 X75.430 Y130.020 F10800.000
;TYPE:External perimeter
G1 F1200.000
G1 X75.032 Y129.639 E0.01728
G1 X74.745 Y129.265 E0.01476
G1 X74.542 Y128.930 E0.01230
G1 X74.349 Y128.504 E0.01466
G1 X74.212 Y128.054 E0.01475
G1 X74.141 Y127.668 E0.01230
G1 X74.110 Y127.189 E0.01507
G1 X74.110 Y82.813 E1.39137
G1 X74.156 Y82.225 E0.01848
G1 X74.257 Y81.772 E0.01456
G1 X74.462 Y81.231 E0.01814
G1 X74.685 Y80.824 E0.01456
G1 X75.032 Y80.361 E0.01815
G1 X75.361 Y80.032 E0.01459
G1 X75.735 Y79.745 E0.01476
G1 X76.070 Y79.542 E0.01230
G1 X76.496 Y79.349 E0.01466
G1 X76.946 Y79.212 E0.01475
G1 X77.332 Y79.141 E0.01230
G1 X77.811 Y79.110 E0.01507
G1 X172.304 Y79.115 E2.96276
G1 X172.669 Y79.141 E0.01147
G1 X173.227 Y79.256 E0.01785
G1 X173.673 Y79.419 E0.01488
G1 X173.928 Y79.541 E0.00887
G1 X174.265 Y79.745 E0.01237
G1 X174.640 Y80.033 E0.01483
G1 X174.844 Y80.228 E0.00883
G1 X175.152 Y80.587 E0.01484
G1 X175.313 Y80.820 E0.00888
G1 X175.540 Y81.234 E0.01482
G1 X175.650 Y81.493 E0.00880
