; generated by PrusaSlicer 2.3.0 on 2021-04-19 at 11:58:22 UTC

; 

; external perimeters extrusion width = 0.45mm
; perimeters extrusion width = 0.45mm
; infill extrusion width = 0.45mm
; solid infill extrusion width = 0.45mm
; top infill extrusion width = 0.40mm
; first layer extrusion width = 0.42mm

M73 P0 R185
M73 Q0 S186
M201 X1000 Y1000 Z200 E5000 ; sets maximum accelerations, mm/sec^2
M203 X200 Y200 Z12 E120 ; sets maximum feedrates, mm/sec
M204 P1250 R1250 T1250 ; sets acceleration (P, T) and retract acceleration (R), mm/sec^2
M205 X8.00 Y8.00 Z0.40 E4.50 ; sets the jerk limits, mm/sec
M205 S0 T0 ; sets the minimum extruding and travel feed rate, mm/sec
M107
;TYPE:Custom
M862.3 P "MK3SMMU2S" ; printer model check
M862.1 P0.4 ; nozzle diameter check
M115 U3.9.3 ; tell printer latest fw version
G90 ; use absolute coordinates
M83 ; extruder relative mode
M104 S225 ; set extruder temp
M140 S90 ; set bed temp
Tx
M190 S90 ; wait for bed temp
M109 S225 ; wait for extruder temp
G28 W ; home all without mesh bed level
G80 ; mesh bed leveling

;go outside print area
G1 Y-3.0 F1000.0
G1 Z0.4 F1000.0
; select extruder
Tc
; purge line
G1 X55.0 F2000.0
G1 Z0.3 F1000.0
G92 E0.0
G1 X240.0 E25.0 F2200.0
G1 Y-2.0 F1000.0
G1 X55.0 E25 F1400.0
G1 Z0.20 F1000.0
G1 X5.0 E4.0 F1000.0

M221 S95
G92 E0.0

; Don't change E values below. Excessive value can damage the printer.
M907 E430 ; set extruder motor current
G21 ; set units to millimeters
G90 ; use absolute coordinates
M83 ; use relative distances for extrusion
M900 K0.08 ; Filament gcode LA 1.5
M900 K45 ; Filament gcode LA 1.0
;LAYER_CHANGE
;Z:0.2
;HEIGHT:0.2
;BEFORE_LAYER_CHANGE
G92 E0.0
;0.2


G1 E-1.40000 F2100.000
G1 Z0.200 F10800.000
;AFTER_LAYER_CHANGE
;0.2
G1 Z0.400
G1 X74.844 Y46.475
G1 Z0.200
G1 E1.40000 F2100.000
M204 S1000
;TYPE:Skirt
;WIDTH:0.42
G1 F1200.000
G1 X76.446 Y45.936 E0.05300
G1 X77.747 Y45.799 E0.04102
G1 X172.204 Y45.798 E2.96162
M73 P0 R184
G1 X173.454 Y45.915 E0.03938
G1 X174.672 Y46.263 E0.03971
G1 X175.798 Y46.827 E0.03948
G1 X176.849 Y47.637 E0.04161
G1 X177.649 Y48.529 E0.03757
G1 X178.336 Y49.667 E0.04169
G1 X178.864 Y51.243 E0.05209
G1 X179.000 Y52.498 E0.03959
G1 X179.002 Y157.438 E3.29033
G1 X178.885 Y158.654 E0.03831
G1 X178.545 Y159.851 E0.03900
G1 X177.991 Y160.968 E0.03912
G1 X177.284 Y161.917 E0.03709
G1 X176.299 Y162.829 E0.04209
G1 X175.149 Y163.528 E0.04221
G1 X173.546 Y164.066 E0.05300
G1 X172.211 Y164.202 E0.04209
G1 X77.758 Y164.202 E2.96150
G1 X76.546 Y164.085 E0.03819
G1 X75.349 Y163.745 E0.03900
G1 X74.232 Y163.191 E0.03912
G1 X73.283 Y162.484 E0.03709
G1 X72.371 Y161.499 E0.04209
G1 X71.672 Y160.349 E0.04221
G1 X71.134 Y158.746 E0.05300
G1 X70.998 Y157.411 E0.04209
G1 X70.998 Y52.562 E3.28746
G1 X71.115 Y51.346 E0.03831
G1 X71.455 Y50.149 E0.03900
G1 X72.009 Y49.032 E0.03912
G1 X72.716 Y48.083 E0.03709
G1 X73.701 Y47.171 E0.04209
G1 X74.793 Y46.506 E0.04009
; printing object SlimTop.stl id:1 copy 0
;WIPE_START
G1 F8640.000
G1 X76.446 Y45.936 E-0.40384
G1 X77.747 Y45.799 E-0.30205
G1 X80.450 Y45.798 E-0.62411
;WIPE_END
G1 E-0.07000 F2100.000
G1 Z0.400 F10800.000
G1 X130.000 Y109.970
G1 Z0.200
G1 E1.40000 F2100.000
;TYPE:External perimeter
G1 F1200.000
G1 X167.620 Y109.970 E1.17955
G1 X167.620 Y119.290 E0.29222
G1 X130.000 Y119.290 E1.17955
G1 X130.000 Y110.030 E0.29034
G1 X129.829 Y109.609 F10800.000
;WIPE_START
G1 F8640.000
G1 X135.760 Y110.021 E-1.33000
;WIPE_END
G1 E-0.07000 F2100.000
G1 Z0.400 F10800.000
G1 X129.623 Y119.667
G1 Z0.200
G1 E1.40000 F2100.000
;TYPE:Perimeter
G1 F1200.000
G1 X167.997 Y119.667 E1.20319
G1 X167.997 Y109.690 E0.31283
G1 X172.453 Y109.698 E0.13970
G1 X172.869 Y109.757 E0.01320
G1 X173.370 Y109.903 E0.01633
G1 X173.844 Y110.127 E0.01646
G1 X174.309 Y110.449 E0.01773
G1 X174.685 Y110.813 E0.01640
G1 X174.998 Y111.229 E0.01631
G1 X175.201 Y111.599 E0.01325
G1 X175.294 Y111.819 E0.00750
G1 X175.443 Y112.331 E0.01670
G1 X175.502 Y112.748 E0.01322
G1 X175.513 Y129.713 E0.53193
G1 X161.413 Y129.713 E0.44210
G1 X161.413 Y140.687 E0.34409
G1 X175.513 Y140.687 E0.44210
G1 X175.513 Y146.513 E0.18267
G1 X166.413 Y146.513 E0.28532
G1 X166.413 Y150.087 E0.11207
M73 Q0 S185
G1 X175.513 Y150.087 E0.28532
G1 X175.502 Y157.652 E0.23720
G1 X175.442 Y158.072 E0.01330
G1 X175.327 Y158.482 E0.01335
G1 X175.198 Y158.806 E0.01095
G1 X174.992 Y159.182 E0.01342
G1 X174.690 Y159.583 E0.01575
G1 X174.389 Y159.884 E0.01334
G1 X174.052 Y160.143 E0.01334
G1 X173.753 Y160.324 E0.01095
G1 X173.371 Y160.498 E0.01317
G1 X172.965 Y160.621 E0.01331
G1 X172.621 Y160.684 E0.01094
G1 X172.176 Y160.713 E0.01399
G1 X140.527 Y160.713 E0.99234
G1 X140.527 Y150.733 E0.31292
G1 X89.953 Y150.733 E1.58572
G1 X89.953 Y160.713 E0.31292
G1 X77.828 Y160.713 E0.38018
G1 X77.281 Y160.670 E0.01719
G1 X76.880 Y160.581 E0.01289
G1 X76.389 Y160.395 E0.01646
G1 X76.029 Y160.198 E0.01288
G1 X75.608 Y159.882 E0.01647
G1 X75.316 Y159.589 E0.01297
G1 X75.057 Y159.252 E0.01334
G1 X74.876 Y158.953 E0.01095
G1 X74.699 Y158.563 E0.01343
G1 X74.623 Y158.336 E0.00753
G1 X74.516 Y157.815 E0.01666
G1 X74.487 Y157.376 E0.01379
G1 X74.487 Y156.307 E0.03352
G1 X83.587 Y156.307 E0.28532
G1 X83.587 Y152.733 E0.11207
G1 X74.487 Y152.733 E0.28532
G1 X74.487 Y146.147 E0.20649
G1 X83.587 Y146.147 E0.28532
G1 X83.587 Y142.573 E0.11207
G1 X74.487 Y142.573 E0.28532
G1 X74.487 Y135.987 E0.20649
G1 X83.587 Y135.987 E0.28532
G1 X83.587 Y132.413 E0.11207
G1 X74.487 Y132.413 E0.28532
G1 X74.487 Y125.827 E0.20649
G1 X83.587 Y125.827 E0.28532
G1 X83.587 Y122.253 E0.11207
G1 X74.487 Y122.253 E0.28532
G1 X74.487 Y115.667 E0.20649
G1 X83.587 Y115.667 E0.28532
G1 X83.587 Y112.093 E0.11207
G1 X74.621 Y112.093 E0.28112
G1 X74.651 Y111.978 E0.00373
G1 X74.854 Y111.488 E0.01664
G1 X75.073 Y111.122 E0.01335
G1 X75.287 Y110.846 E0.01097
G1 X75.585 Y110.539 E0.01341
G1 X76.006 Y110.218 E0.01659
G1 X76.374 Y110.011 E0.01324
G1 X76.776 Y109.852 E0.01357
G1 X77.114 Y109.761 E0.01097
G1 X77.545 Y109.698 E0.01367
G1 X77.816 Y109.687 E0.00850
G1 X129.623 Y109.689 E1.62436
G1 X129.623 Y119.607 E0.31099
;WIPE_START
G1 F8640.000
G1 X135.383 Y119.616 E-1.33000
;WIPE_END
G1 E-0.07000 F2100.000
G1 Z0.400 F10800.000
G1 X90.330 Y151.110
G1 Z0.200
G1 E1.40000 F2100.000
;TYPE:External perimeter
G1 F1200.000
G1 X140.150 Y151.110 E1.56207
G1 X140.150 Y160.430 E0.29222
G1 X90.330 Y160.430 E1.56207
G1 X90.330 Y151.170 E0.29034
G1 X90.152 Y150.752 F10800.000
;WIPE_START
G1 F8640.000
G1 X96.090 Y151.163 E-1.33000
;WIPE_END
G1 E-0.07000 F2100.000
G1 Z0.400 F10800.000
G1 X83.210 Y153.110
G1 Z0.200
G1 E1.40000 F2100.000
G1 F1200.000
G1 X74.110 Y153.110 E0.28532
G1 X74.110 Y145.770 E0.23014
G1 X83.210 Y145.770 E0.28532
G1 X83.210 Y142.950 E0.08842
G1 X74.110 Y142.950 E0.28532
G1 X74.110 Y135.610 E0.23014
G1 X83.210 Y135.610 E0.28532
G1 X83.210 Y132.790 E0.08842
G1 X74.110 Y132.790 E0.28532
M73 P0 R183
G1 X74.110 Y125.450 E0.23014
G1 X83.210 Y125.450 E0.28532
G1 X83.210 Y122.630 E0.08842
G1 X74.110 Y122.630 E0.28532
G1 X74.110 Y115.290 E0.23014
G1 X83.210 Y115.290 E0.28532
G1 X83.210 Y112.470 E0.08842
G1 X74.155 Y112.470 E0.28392
G1 X74.174 Y112.319 E0.00479
G1 X74.292 Y111.858 E0.01490
G1 X74.517 Y111.318 E0.01835
G1 X74.761 Y110.910 E0.01491
G1 X75.001 Y110.598 E0.01234
G1 X75.334 Y110.256 E0.01496
G1 X75.798 Y109.902 E0.01830
G1 X76.212 Y109.670 E0.01487
G1 X76.657 Y109.494 E0.01502
G1 X77.037 Y109.391 E0.01234
G1 X77.511 Y109.322 E0.01501
G1 X77.809 Y109.310 E0.00935
G1 X172.251 Y109.313 E2.96118
G1 X172.487 Y109.322 E0.00738
G1 X172.949 Y109.388 E0.01465
G1 X173.503 Y109.549 E0.01810
G1 X174.026 Y109.795 E0.01810
G1 X174.265 Y109.945 E0.00885
G1 X174.554 Y110.161 E0.01133
G1 X174.969 Y110.562 E0.01808
G1 X175.315 Y111.024 E0.01809
G1 X175.540 Y111.434 E0.01469
G1 X175.650 Y111.693 E0.00880
G1 X175.812 Y112.251 E0.01823
G1 X175.878 Y112.714 E0.01465
G1 X175.890 Y113.009 E0.00926
G1 X175.890 Y130.090 E0.53557
G1 X161.790 Y130.090 E0.44210
G1 X161.790 Y140.310 E0.32044
G1 X175.890 Y140.310 E0.44210
G1 X175.890 Y146.890 E0.20631
G1 X166.790 Y146.890 E0.28532
G1 X166.790 Y149.710 E0.08842
G1 X175.890 Y149.710 E0.28532
G1 X175.890 Y157.391 E0.24084
G1 X175.878 Y157.686 E0.00926
G1 X175.812 Y158.150 E0.01468
G1 X175.685 Y158.603 E0.01476
G1 X175.539 Y158.968 E0.01230
G1 X175.313 Y159.380 E0.01475
G1 X174.971 Y159.836 E0.01789
G1 X174.639 Y160.168 E0.01472
G1 X174.265 Y160.455 E0.01476
G1 X173.930 Y160.658 E0.01230
G1 X173.504 Y160.851 E0.01466
G1 X173.054 Y160.988 E0.01475
G1 X172.668 Y161.059 E0.01230
G1 X172.189 Y161.090 E0.01507
G1 X77.813 Y161.090 E2.95908
G1 X77.225 Y161.044 E0.01848
G1 X76.772 Y160.943 E0.01456
G1 X76.231 Y160.738 E0.01814
G1 X75.824 Y160.515 E0.01456
G1 X75.361 Y160.168 E0.01815
G1 X75.032 Y159.839 E0.01459
G1 X74.745 Y159.465 E0.01476
G1 X74.542 Y159.130 E0.01230
G1 X74.348 Y158.701 E0.01475
G1 X74.258 Y158.434 E0.00884
G1 X74.141 Y157.866 E0.01818
G1 X74.110 Y157.389 E0.01499
G1 X74.110 Y155.930 E0.04573
G1 X83.210 Y155.930 E0.28532
G1 X83.210 Y153.170 E0.08654
G1 X83.374 Y152.745 F10800.000
;WIPE_START
G1 F8640.000
G1 X77.450 Y153.132 E-1.33000
;WIPE_END
G1 E-0.07000 F2100.000
G1 Z0.400 F10800.000
G1 X90.141 Y160.760
G1 Z0.200
G1 E1.40000 F2100.000
;TYPE:Gap fill
;WIDTH:0.325842
G1 F1200.000
G1 X140.339 Y160.760 E1.18089
;WIPE_START
G1 F8640.000
G1 X134.579 Y160.760 E-1.33000
;WIPE_END
G1 E-0.07000 F2100.000
G1 Z0.400 F10800.000
G1 X174.701 Y150.200
G1 Z0.200
G1 E1.40000 F2100.000
;TYPE:Solid infill
;WIDTH:0.420416
G1 F1200.000
G1 X175.229 Y150.729 E0.02347
G1 X175.228 Y151.262 E0.01673
G1 X174.336 Y150.370 E0.03960
G1 X173.802 Y150.370 E0.01676
G1 X175.228 Y151.795 E0.06327
G1 X175.227 Y152.328 E0.01673
G1 X173.269 Y150.370 E0.08693
G1 X172.735 Y150.370 E0.01676
G1 X175.226 Y152.861 E0.11060
G1 X175.225 Y153.394 E0.01673
G1 X172.201 Y150.370 E0.13426
G1 X171.667 Y150.370 E0.01676
G1 X175.225 Y153.928 E0.15793
G1 X175.224 Y154.461 E0.01673
G1 X171.133 Y150.370 E0.18159
G1 X170.599 Y150.370 E0.01676
G1 X175.223 Y154.994 E0.20526
G1 X175.222 Y155.527 E0.01673
G1 X170.065 Y150.370 E0.22892
G1 X169.532 Y150.370 E0.01676
G1 X175.222 Y156.060 E0.25259
G1 X175.221 Y156.593 E0.01673
G1 X168.998 Y150.370 E0.27625
G1 X168.464 Y150.370 E0.01676
G1 X175.220 Y157.126 E0.29992
G1 X175.216 Y157.656 E0.01663
G1 X167.930 Y150.370 E0.32343
G1 X167.396 Y150.370 E0.01676
G1 X175.138 Y158.111 E0.34365
G1 X175.009 Y158.517 E0.01335
G1 X166.693 Y150.200 E0.36917
;WIPE_START
G1 F8640.000
G1 X170.766 Y154.273 E-1.33000
;WIPE_END
G1 E-0.07000 F2100.000
G1 Z0.400 F10800.000
G1 X175.400 Y141.290
G1 Z0.200
G1 E1.40000 F2100.000
G1 F1200.000
G1 X175.080 Y140.970 E0.01421
G1 X174.546 Y140.970 E0.01676
G1 X175.230 Y141.654 E0.03038
G1 X175.230 Y142.188 E0.01676
G1 X174.012 Y140.970 E0.05407
G1 X173.478 Y140.970 E0.01676
G1 X175.230 Y142.722 E0.07777
M73 P1 R183
G1 X175.230 Y143.256 E0.01676
G1 X172.944 Y140.970 E0.10147
G1 X172.410 Y140.970 E0.01676
G1 X175.230 Y143.790 E0.12517
M73 Q1 S185
G1 X175.230 Y144.323 E0.01676
G1 X171.877 Y140.970 E0.14887
G1 X171.343 Y140.970 E0.01676
G1 X175.230 Y144.857 E0.17257
G1 X175.230 Y145.391 E0.01676
G1 X170.809 Y140.970 E0.19626
G1 X170.275 Y140.970 E0.01676
G1 X175.230 Y145.925 E0.21996
G1 X175.230 Y146.230 E0.00958
G1 X175.001 Y146.230 E0.00718
G1 X169.741 Y140.970 E0.23351
G1 X169.207 Y140.970 E0.01676
G1 X174.467 Y146.230 E0.23351
G1 X173.934 Y146.230 E0.01676
G1 X168.673 Y140.970 E0.23351
M73 Q1 S184
G1 X168.140 Y140.970 E0.01676
G1 X173.400 Y146.230 E0.23351
G1 X172.866 Y146.230 E0.01676
G1 X167.606 Y140.970 E0.23351
G1 X167.072 Y140.970 E0.01676
G1 X172.332 Y146.230 E0.23351
G1 X171.798 Y146.230 E0.01676
G1 X166.538 Y140.970 E0.23351
G1 X166.004 Y140.970 E0.01676
G1 X171.264 Y146.230 E0.23351
G1 X170.730 Y146.230 E0.01676
G1 X165.470 Y140.970 E0.23351
G1 X164.936 Y140.970 E0.01676
G1 X170.197 Y146.230 E0.23351
G1 X169.663 Y146.230 E0.01676
G1 X164.402 Y140.970 E0.23351
G1 X163.869 Y140.970 E0.01676
G1 X169.129 Y146.230 E0.23351
G1 X168.595 Y146.230 E0.01676
G1 X163.335 Y140.970 E0.23351
G1 X162.801 Y140.970 E0.01676
G1 X168.061 Y146.230 E0.23351
G1 X167.527 Y146.230 E0.01676
G1 X162.267 Y140.970 E0.23351
G1 X161.733 Y140.970 E0.01676
G1 X167.163 Y146.400 E0.24104
;WIPE_START
G1 F8640.000
G1 X163.090 Y142.327 E-1.33000
;WIPE_END
G1 E-0.07000 F2100.000
G1 Z0.400 F10800.000
G1 X175.072 Y111.600
G1 Z0.200
G1 E1.40000 F2100.000
G1 F1200.000
G1 X174.129 Y110.668 E0.04162
G1 X173.702 Y110.372 E0.01630
G1 X173.269 Y110.168 E0.01504
G1 X173.039 Y110.101 E0.00751
G1 X175.099 Y112.161 E0.09142
G1 X175.166 Y112.390 E0.00751
G1 X175.220 Y112.815 E0.01344
G1 X172.383 Y109.978 E0.12594
G1 X171.843 Y109.973 E0.01693
G1 X175.220 Y113.349 E0.14989
G1 X175.220 Y113.884 E0.01677
G1 X171.309 Y109.973 E0.17361
G1 X170.775 Y109.973 E0.01676
G1 X175.221 Y114.418 E0.19732
G1 X175.221 Y114.952 E0.01677
G1 X170.242 Y109.973 E0.22103
G1 X169.708 Y109.973 E0.01676
G1 X175.221 Y115.486 E0.24475
G1 X175.222 Y116.020 E0.01677
G1 X169.174 Y109.973 E0.26846
G1 X168.640 Y109.973 E0.01676
G1 X175.222 Y116.554 E0.29218
G1 X175.222 Y117.089 E0.01677
G1 X168.280 Y110.146 E0.30817
G1 X168.280 Y110.680 E0.01676
G1 X175.223 Y117.623 E0.30819
G1 X175.223 Y118.157 E0.01677
G1 X168.280 Y111.214 E0.30820
G1 X168.280 Y111.748 E0.01676
G1 X175.223 Y118.691 E0.30822
G1 X175.224 Y119.225 E0.01677
G1 X168.280 Y112.282 E0.30823
G1 X168.280 Y112.816 E0.01676
G1 X175.224 Y119.760 E0.30825
G1 X175.224 Y120.294 E0.01677
G1 X168.280 Y113.350 E0.30826
G1 X168.280 Y113.883 E0.01676
G1 X175.225 Y120.828 E0.30828
G1 X175.225 Y121.362 E0.01677
G1 X168.280 Y114.417 E0.30829
G1 X168.280 Y114.951 E0.01676
G1 X175.225 Y121.896 E0.30831
G1 X175.226 Y122.431 E0.01677
G1 X168.280 Y115.485 E0.30832
G1 X168.280 Y116.019 E0.01676
G1 X175.226 Y122.965 E0.30834
G1 X175.226 Y123.499 E0.01677
G1 X168.280 Y116.553 E0.30835
G1 X168.280 Y117.087 E0.01676
G1 X175.227 Y124.033 E0.30837
G1 X175.227 Y124.567 E0.01677
G1 X168.280 Y117.620 E0.30838
G1 X168.280 Y118.154 E0.01676
G1 X175.227 Y125.102 E0.30840
G1 X175.228 Y125.636 E0.01677
G1 X168.280 Y118.688 E0.30841
G1 X168.280 Y119.222 E0.01676
G1 X175.228 Y126.170 E0.30843
G1 X175.228 Y126.704 E0.01677
G1 X168.280 Y119.756 E0.30844
G1 X168.280 Y119.950 E0.00609
G1 X167.940 Y119.950 E0.01067
G1 X175.229 Y127.238 E0.32354
G1 X175.229 Y127.773 E0.01677
G1 X167.406 Y119.950 E0.34726
G1 X166.872 Y119.950 E0.01676
G1 X175.229 Y128.307 E0.37097
G1 X175.230 Y128.841 E0.01677
G1 X166.338 Y119.950 E0.39468
G1 X165.805 Y119.950 E0.01676
G1 X175.230 Y129.375 E0.41839
G1 X175.230 Y129.430 E0.00172
G1 X174.751 Y129.430 E0.01503
G1 X165.271 Y119.950 E0.42083
G1 X164.737 Y119.950 E0.01676
G1 X174.217 Y129.430 E0.42083
G1 X173.683 Y129.430 E0.01676
G1 X164.203 Y119.950 E0.42083
G1 X163.669 Y119.950 E0.01676
G1 X173.149 Y129.430 E0.42083
G1 X172.616 Y129.430 E0.01676
G1 X163.135 Y119.950 E0.42083
G1 X162.601 Y119.950 E0.01676
G1 X172.082 Y129.430 E0.42083
G1 X171.548 Y129.430 E0.01676
G1 X162.068 Y119.950 E0.42083
G1 X161.534 Y119.950 E0.01676
G1 X171.014 Y129.430 E0.42083
M73 P1 R182
G1 X170.480 Y129.430 E0.01676
G1 X161.000 Y119.950 E0.42083
G1 X160.466 Y119.950 E0.01676
G1 X169.946 Y129.430 E0.42083
G1 X169.412 Y129.430 E0.01676
G1 X159.932 Y119.950 E0.42083
G1 X159.398 Y119.950 E0.01676
G1 X168.879 Y129.430 E0.42083
G1 X168.345 Y129.430 E0.01676
G1 X158.864 Y119.950 E0.42083
G1 X158.331 Y119.950 E0.01676
G1 X167.811 Y129.430 E0.42083
G1 X167.277 Y129.430 E0.01676
G1 X157.797 Y119.950 E0.42083
G1 X157.263 Y119.950 E0.01676
G1 X166.743 Y129.430 E0.42083
G1 X166.209 Y129.430 E0.01676
G1 X156.729 Y119.950 E0.42083
G1 X156.195 Y119.950 E0.01676
G1 X165.675 Y129.430 E0.42083
G1 X165.142 Y129.430 E0.01676
G1 X155.661 Y119.950 E0.42083
G1 X155.127 Y119.950 E0.01676
G1 X164.608 Y129.430 E0.42083
G1 X164.074 Y129.430 E0.01676
G1 X154.594 Y119.950 E0.42083
G1 X154.060 Y119.950 E0.01676
G1 X163.540 Y129.430 E0.42083
G1 X163.006 Y129.430 E0.01676
G1 X153.526 Y119.950 E0.42083
G1 X152.992 Y119.950 E0.01676
G1 X162.472 Y129.430 E0.42083
G1 X161.938 Y129.430 E0.01676
G1 X152.458 Y119.950 E0.42083
