; generated by PrusaSlicer 2.3.0 on 2021-04-19 at 11:57:52 UTC

; 

; external perimeters extrusion width = 0.45mm
; perimeters extrusion width = 0.45mm
; infill extrusion width = 0.45mm
; solid infill extrusion width = 0.45mm
; top infill extrusion width = 0.40mm
; first layer extrusion width = 0.42mm

M73 P0 R265
M73 Q0 S267
M201 X1000 Y1000 Z200 E5000 ; sets maximum accelerations, mm/sec^2
M203 X200 Y200 Z12 E120 ; sets maximum feedrates, mm/sec
M204 P1250 R1250 T1250 ; sets acceleration (P, T) and retract acceleration (R), mm/sec^2
M205 X8.00 Y8.00 Z0.40 E4.50 ; sets the jerk limits, mm/sec
M205 S0 T0 ; sets the minimum extruding and travel feed rate, mm/sec
M107
;TYPE:Custom
M862.3 P "MK3SMMU2S" ; printer model check
M862.1 P0.4 ; nozzle diameter check
M115 U3.9.3 ; tell printer latest fw version
G90 ; use absolute coordinates
M83 ; extruder relative mode
M104 S225 ; set extruder temp
M140 S90 ; set bed temp
Tx
M190 S90 ; wait for bed temp
M109 S225 ; wait for extruder temp
G28 W ; home all without mesh bed level
G80 ; mesh bed leveling

;go outside print area
G1 Y-3.0 F1000.0
G1 Z0.4 F1000.0
; select extruder
Tc
; purge line
G1 X55.0 F2000.0
G1 Z0.3 F1000.0
G92 E0.0
G1 X240.0 E25.0 F2200.0
G1 Y-2.0 F1000.0
G1 X55.0 E25 F1400.0
G1 Z0.20 F1000.0
G1 X5.0 E4.0 F1000.0

M221 S95
G92 E0.0

; Don't change E values below. Excessive value can damage the printer.
M907 E430 ; set extruder motor current
G21 ; set units to millimeters
G90 ; use absolute coordinates
M83 ; use relative distances for extrusion
M900 K0.08 ; Filament gcode LA 1.5
M900 K45 ; Filament gcode LA 1.0
;LAYER_CHANGE
;Z:0.2
;HEIGHT:0.2
;BEFORE_LAYER_CHANGE
G92 E0.0
;0.2


G1 E-1.40000 F2100.000
G1 Z0.200 F10800.000
;AFTER_LAYER_CHANGE
;0.2
G1 Z0.400
G1 X74.844 Y46.475
G1 Z0.200
G1 E1.40000 F2100.000
M204 S1000
;TYPE:Skirt
;WIDTH:0.42
G1 F1200.000
G1 X76.446 Y45.936 E0.05300
G1 X77.747 Y45.799 E0.04102
G1 X172.204 Y45.798 E2.96162
G1 X173.454 Y45.915 E0.03938
G1 X174.672 Y46.263 E0.03971
G1 X175.798 Y46.827 E0.03948
G1 X176.849 Y47.637 E0.04161
G1 X177.649 Y48.529 E0.03757
G1 X178.335 Y49.665 E0.04161
G1 X178.864 Y51.243 E0.05217
G1 X179.000 Y52.494 E0.03947
G1 X179.002 Y157.434 E3.29033
G1 X178.873 Y158.717 E0.04043
G1 X178.522 Y159.905 E0.03883
G1 X178.148 Y160.697 E0.02748
G1 X177.435 Y161.743 E0.03967
G1 X176.433 Y162.722 E0.04394
G1 X175.880 Y163.118 E0.02131
G1 X174.906 Y163.639 E0.03463
G1 X173.552 Y164.066 E0.04454
G1 X172.221 Y164.202 E0.04193
G1 X77.762 Y164.202 E2.96171
G1 X76.483 Y164.073 E0.04031
G1 X75.295 Y163.722 E0.03883
G1 X74.503 Y163.348 E0.02748
G1 X73.457 Y162.635 E0.03966
G1 X72.478 Y161.633 E0.04394
G1 X72.082 Y161.080 E0.02131
G1 X71.561 Y160.106 E0.03463
G1 X71.134 Y158.752 E0.04454
G1 X70.998 Y157.414 E0.04216
G1 X70.998 Y52.562 E3.28756
M73 Q0 S266
G1 X71.115 Y51.346 E0.03831
G1 X71.455 Y50.149 E0.03900
G1 X72.009 Y49.032 E0.03912
G1 X72.713 Y48.086 E0.03697
G1 X73.701 Y47.171 E0.04221
G1 X74.793 Y46.506 E0.04009
; printing object ThiccTop.stl id:1 copy 0
;WIPE_START
G1 F8640.000
G1 X76.446 Y45.936 E-0.40384
G1 X77.747 Y45.799 E-0.30205
G1 X80.450 Y45.798 E-0.62411
;WIPE_END
G1 E-0.07000 F2100.000
G1 Z0.400 F10800.000
G1 X77.534 Y109.699
G1 Z0.200
G1 E1.40000 F2100.000
;TYPE:Perimeter
G1 F1200.000
G1 X172.238 Y109.690 E2.96936
M73 P0 R264
G1 X172.648 Y109.719 E0.01288
G1 X172.909 Y109.765 E0.00832
G1 X173.164 Y109.831 E0.00825
G1 X173.591 Y109.996 E0.01435
G1 X174.058 Y110.258 E0.01678
G1 X174.271 Y110.415 E0.00832
G1 X174.606 Y110.725 E0.01430
G1 X174.942 Y111.142 E0.01682
G1 X175.081 Y111.367 E0.00828
G1 X175.278 Y111.779 E0.01430
G1 X175.367 Y112.029 E0.00831
G1 X175.433 Y112.284 E0.00829
G1 X175.501 Y112.734 E0.01426
G1 X175.513 Y113.017 E0.00888
G1 X175.513 Y157.383 E1.39105
G1 X175.501 Y157.666 E0.00888
G1 X175.435 Y158.106 E0.01398
G1 X175.308 Y158.535 E0.01402
G1 X175.164 Y158.875 E0.01156
G1 X174.942 Y159.256 E0.01385
G1 X174.667 Y159.607 E0.01396
G1 X174.407 Y159.867 E0.01156
G1 X174.056 Y160.142 E0.01396
G1 X173.675 Y160.364 E0.01385
G1 X173.335 Y160.508 E0.01156
G1 X172.906 Y160.635 E0.01402
G1 X172.466 Y160.701 E0.01398
G1 X172.183 Y160.713 E0.00888
G1 X77.817 Y160.713 E2.95877
G1 X77.266 Y160.668 E0.01734
G1 X76.829 Y160.566 E0.01407
G1 X76.414 Y160.406 E0.01393
G1 X76.089 Y160.233 E0.01156
G1 X75.723 Y159.979 E0.01398
G1 X75.394 Y159.675 E0.01403
G1 X75.062 Y159.264 E0.01658
G1 X74.836 Y158.875 E0.01411
G1 X74.692 Y158.535 E0.01156
G1 X74.565 Y158.106 E0.01402
G1 X74.499 Y157.666 E0.01398
G1 X74.487 Y157.383 E0.00888
G1 X74.487 Y113.017 E1.39105
G1 X74.532 Y112.466 E0.01734
G1 X74.634 Y112.029 E0.01407
G1 X74.794 Y111.614 E0.01393
G1 X74.967 Y111.289 E0.01156
G1 X75.221 Y110.923 E0.01398
G1 X75.525 Y110.594 E0.01403
G1 X75.723 Y110.420 E0.00828
G1 X75.936 Y110.262 E0.00831
G1 X76.325 Y110.036 E0.01411
G1 X76.665 Y109.892 E0.01156
G1 X77.094 Y109.765 E0.01402
G1 X77.475 Y109.708 E0.01210
G1 X77.012 Y109.396 F10800.000
;TYPE:External perimeter
G1 F1200.000
G1 X77.498 Y109.323 E0.01543
G1 X77.809 Y109.310 E0.00976
G1 X172.251 Y109.313 E2.96116
G1 X172.693 Y109.345 E0.01389
G1 X172.989 Y109.396 E0.00941
G1 X173.279 Y109.472 E0.00940
G1 X173.744 Y109.650 E0.01562
G1 X174.012 Y109.786 E0.00941
G1 X174.269 Y109.945 E0.00948
G1 X174.511 Y110.124 E0.00946
G1 X174.876 Y110.461 E0.01557
G1 X175.074 Y110.686 E0.00940
G1 X175.255 Y110.931 E0.00954
G1 X175.413 Y111.186 E0.00941
G1 X175.627 Y111.634 E0.01557
G1 X175.727 Y111.918 E0.00944
G1 X175.803 Y112.209 E0.00942
G1 X175.877 Y112.698 E0.01553
G1 X175.890 Y113.009 E0.00976
G1 X175.890 Y157.391 E1.39155
G1 X175.877 Y157.702 E0.00976
G1 X175.804 Y158.188 E0.01543
G1 X175.664 Y158.663 E0.01551
G1 X175.502 Y159.044 E0.01299
G1 X175.255 Y159.469 E0.01541
G1 X174.950 Y159.857 E0.01548
G1 X174.657 Y160.150 E0.01299
G1 X174.269 Y160.455 E0.01548
G1 X173.844 Y160.702 E0.01541
G1 X173.463 Y160.864 E0.01299
G1 X172.988 Y161.004 E0.01551
G1 X172.502 Y161.077 E0.01543
G1 X172.191 Y161.090 E0.00976
G1 X77.809 Y161.090 E2.95926
G1 X77.496 Y161.077 E0.00984
G1 X77.199 Y161.040 E0.00937
G1 X76.718 Y160.927 E0.01550
G1 X76.258 Y160.750 E0.01547
G1 X75.892 Y160.556 E0.01299
G1 X75.486 Y160.274 E0.01550
G1 X75.124 Y159.939 E0.01547
G1 X74.926 Y159.714 E0.00940
G1 X74.747 Y159.471 E0.00945
G1 X74.498 Y159.044 E0.01550
G1 X74.336 Y158.663 E0.01299
G1 X74.196 Y158.188 E0.01551
G1 X74.123 Y157.702 E0.01543
G1 X74.110 Y157.391 E0.00976
G1 X74.110 Y113.009 E1.39155
G1 X74.123 Y112.696 E0.00984
G1 X74.160 Y112.399 E0.00937
G1 X74.273 Y111.918 E0.01550
G1 X74.450 Y111.458 E0.01547
G1 X74.644 Y111.092 E0.01299
G1 X74.926 Y110.686 E0.01550
G1 X75.261 Y110.324 E0.01547
G1 X75.486 Y110.126 E0.00940
G1 X75.729 Y109.947 E0.00945
G1 X76.156 Y109.698 E0.01550
G1 X76.537 Y109.536 E0.01299
G1 X76.954 Y109.413 E0.01363
G1 X77.280 Y109.693 F10800.000
;WIPE_START
G1 F8640.000
G1 X77.498 Y109.323 E-0.12735
G1 X77.809 Y109.310 E-0.07186
G1 X82.707 Y109.310 E-1.13079
;WIPE_END
G1 E-0.07000 F2100.000
G1 Z0.400 F10800.000
G1 X175.335 Y112.388
G1 Z0.200
G1 E1.40000 F2100.000
;TYPE:Solid infill
;WIDTH:0.420457
G1 F1200.000
G1 X173.037 Y110.091 E0.10198
G1 X172.613 Y110.000 E0.01362
G1 X172.398 Y109.985 E0.00677
G1 X175.221 Y112.808 E0.12533
G1 X175.230 Y113.351 E0.01705
G1 X171.852 Y109.973 E0.14998
G1 X171.318 Y109.973 E0.01676
G1 X175.230 Y113.885 E0.17368
G1 X175.230 Y114.419 E0.01676
G1 X170.784 Y109.973 E0.19738
G1 X170.250 Y109.973 E0.01676
G1 X175.230 Y114.953 E0.22109
G1 X175.230 Y115.487 E0.01676
G1 X169.716 Y109.973 E0.24479
G1 X169.182 Y109.973 E0.01676
G1 X175.230 Y116.021 E0.26850
G1 X175.230 Y116.555 E0.01676
G1 X168.648 Y109.973 E0.29220
G1 X168.114 Y109.973 E0.01676
G1 X175.230 Y117.089 E0.31591
G1 X175.230 Y117.623 E0.01676
G1 X167.580 Y109.973 E0.33961
G1 X167.047 Y109.973 E0.01676
G1 X175.230 Y118.156 E0.36331
G1 X175.230 Y118.690 E0.01676
G1 X166.513 Y109.973 E0.38702
G1 X165.979 Y109.973 E0.01676
G1 X175.230 Y119.224 E0.41072
G1 X175.230 Y119.758 E0.01676
G1 X165.445 Y109.973 E0.43443
G1 X164.911 Y109.973 E0.01676
G1 X175.230 Y120.292 E0.45813
G1 X175.230 Y120.826 E0.01676
G1 X164.377 Y109.973 E0.48184
G1 X163.843 Y109.973 E0.01676
G1 X175.230 Y121.360 E0.50554
G1 X175.230 Y121.894 E0.01676
G1 X163.309 Y109.973 E0.52924
G1 X162.775 Y109.973 E0.01676
G1 X175.230 Y122.428 E0.55295
G1 X175.230 Y122.962 E0.01676
G1 X162.241 Y109.973 E0.57665
G1 X161.707 Y109.973 E0.01676
G1 X175.230 Y123.496 E0.60036
G1 X175.230 Y124.030 E0.01676
G1 X161.173 Y109.973 E0.62406
G1 X160.639 Y109.973 E0.01676
G1 X175.230 Y124.563 E0.64777
G1 X175.230 Y125.097 E0.01676
G1 X160.105 Y109.973 E0.67147
G1 X159.571 Y109.973 E0.01676
G1 X175.230 Y125.631 E0.69518
G1 X175.230 Y126.165 E0.01676
G1 X159.037 Y109.973 E0.71888
G1 X158.504 Y109.973 E0.01676
G1 X175.230 Y126.699 E0.74258
G1 X175.230 Y127.233 E0.01676
G1 X157.970 Y109.973 E0.76629
G1 X157.436 Y109.973 E0.01676
G1 X175.230 Y127.767 E0.78999
G1 X175.230 Y128.301 E0.01676
G1 X156.902 Y109.972 E0.81370
M73 Q0 S265
G1 X156.368 Y109.972 E0.01676
G1 X175.230 Y128.835 E0.83740
G1 X175.230 Y129.369 E0.01676
G1 X155.834 Y109.972 E0.86111
G1 X155.300 Y109.972 E0.01676
G1 X175.230 Y129.903 E0.88481
G1 X175.230 Y130.437 E0.01676
G1 X154.766 Y109.972 E0.90851
M73 P0 R263
G1 X154.232 Y109.972 E0.01676
G1 X175.230 Y130.970 E0.93222
G1 X175.230 Y131.504 E0.01676
G1 X153.698 Y109.972 E0.95592
G1 X153.164 Y109.972 E0.01676
G1 X175.230 Y132.038 E0.97963
G1 X175.230 Y132.572 E0.01676
G1 X152.630 Y109.972 E1.00333
G1 X152.096 Y109.972 E0.01676
G1 X175.230 Y133.106 E1.02704
G1 X175.230 Y133.640 E0.01676
G1 X151.562 Y109.972 E1.05074
G1 X151.028 Y109.972 E0.01676
G1 X175.230 Y134.174 E1.07444
G1 X175.230 Y134.708 E0.01676
G1 X150.495 Y109.972 E1.09815
G1 X149.961 Y109.972 E0.01676
G1 X175.230 Y135.242 E1.12185
G1 X175.230 Y135.776 E0.01676
G1 X149.427 Y109.972 E1.14556
G1 X148.893 Y109.972 E0.01676
G1 X175.230 Y136.310 E1.16926
G1 X175.230 Y136.844 E0.01676
G1 X148.359 Y109.972 E1.19297
G1 X147.825 Y109.972 E0.01676
G1 X175.230 Y137.377 E1.21667
G1 X175.230 Y137.911 E0.01676
G1 X147.291 Y109.972 E1.24037
G1 X146.757 Y109.972 E0.01676
G1 X175.230 Y138.445 E1.26408
G1 X175.230 Y138.979 E0.01676
G1 X146.223 Y109.972 E1.28778
G1 X145.689 Y109.972 E0.01676
G1 X175.230 Y139.513 E1.31149
G1 X175.230 Y140.047 E0.01676
G1 X145.155 Y109.972 E1.33519
G1 X144.621 Y109.972 E0.01676
G1 X175.230 Y140.581 E1.35890
G1 X175.230 Y141.115 E0.01676
G1 X144.087 Y109.972 E1.38260
G1 X143.553 Y109.972 E0.01676
G1 X175.230 Y141.649 E1.40630
G1 X175.230 Y142.183 E0.01676
G1 X143.019 Y109.972 E1.43001
G1 X142.485 Y109.972 E0.01676
G1 X175.230 Y142.717 E1.45371
G1 X175.230 Y143.251 E0.01676
G1 X141.952 Y109.972 E1.47742
G1 X141.418 Y109.972 E0.01676
G1 X175.230 Y143.784 E1.50112
G1 X175.230 Y144.318 E0.01676
G1 X140.884 Y109.972 E1.52483
G1 X140.350 Y109.972 E0.01676
G1 X175.230 Y144.852 E1.54853
M73 Q0 S264
G1 X175.230 Y145.386 E0.01676
G1 X139.816 Y109.972 E1.57223
M73 P1 R263
G1 X139.282 Y109.972 E0.01676
G1 X175.230 Y145.920 E1.59594
M73 Q1 S264
G1 X175.230 Y146.454 E0.01676
G1 X138.748 Y109.972 E1.61964
M73 P1 R262
G1 X138.214 Y109.972 E0.01676
G1 X175.230 Y146.988 E1.64335
G1 X175.230 Y147.522 E0.01676
G1 X137.680 Y109.972 E1.66705
G1 X137.146 Y109.972 E0.01676
G1 X175.230 Y148.056 E1.69076
G1 X175.230 Y148.590 E0.01676
G1 X136.612 Y109.972 E1.71446
G1 X136.078 Y109.972 E0.01676
G1 X175.230 Y149.124 E1.73817
G1 X175.230 Y149.658 E0.01676
G1 X135.544 Y109.972 E1.76187
G1 X135.010 Y109.972 E0.01676
G1 X175.230 Y150.192 E1.78557
G1 X175.230 Y150.725 E0.01676
G1 X134.476 Y109.972 E1.80928
G1 X133.943 Y109.972 E0.01676
G1 X175.230 Y151.259 E1.83298
G1 X175.230 Y151.793 E0.01676
G1 X133.409 Y109.972 E1.85669
G1 X132.875 Y109.972 E0.01676
G1 X175.230 Y152.327 E1.88039
G1 X175.230 Y152.861 E0.01676
G1 X132.341 Y109.972 E1.90410
G1 X131.807 Y109.972 E0.01676
G1 X175.230 Y153.395 E1.92780
G1 X175.230 Y153.929 E0.01676
G1 X131.273 Y109.972 E1.95150
G1 X130.739 Y109.972 E0.01676
G1 X175.230 Y154.463 E1.97521
G1 X175.230 Y154.997 E0.01676
G1 X130.205 Y109.972 E1.99891
G1 X129.671 Y109.972 E0.01676
G1 X175.230 Y155.531 E2.02262
G1 X175.230 Y156.065 E0.01676
G1 X129.137 Y109.972 E2.04632
M73 Q1 S263
G1 X128.603 Y109.972 E0.01676
G1 X175.230 Y156.599 E2.07003
G1 X175.230 Y157.132 E0.01676
G1 X128.069 Y109.972 E2.09373
M73 P1 R261
G1 X127.535 Y109.972 E0.01676
G1 X175.217 Y157.653 E2.11685
G1 X175.139 Y158.109 E0.01452
G1 X127.001 Y109.972 E2.13710
G1 X126.467 Y109.971 E0.01676
G1 X175.010 Y158.514 E2.15507
G1 X174.837 Y158.875 E0.01256
G1 X125.933 Y109.971 E2.17109
G1 X125.400 Y109.971 E0.01676
G1 X174.627 Y159.199 E2.18549
G1 X174.384 Y159.490 E0.01190
G1 X124.866 Y109.971 E2.19840
G1 X124.332 Y109.971 E0.01676
G1 X174.105 Y159.745 E2.20971
G1 X173.794 Y159.968 E0.01201
G1 X123.798 Y109.971 E2.21961
G1 X123.264 Y109.971 E0.01676
G1 X173.446 Y160.154 E2.22788
G1 X173.055 Y160.296 E0.01308
G1 X122.730 Y109.971 E2.23420
G1 X122.196 Y109.971 E0.01676
G1 X172.617 Y160.392 E2.23846
G1 X172.439 Y160.419 E0.00566
G1 X172.121 Y160.430 E0.00998
G1 X121.662 Y109.971 E2.24014
G1 X121.128 Y109.971 E0.01676
G1 X171.587 Y160.430 E2.24014
G1 X171.053 Y160.430 E0.01676
G1 X120.594 Y109.971 E2.24014
G1 X120.060 Y109.971 E0.01676
G1 X170.519 Y160.430 E2.24014
M73 Q1 S262
G1 X169.985 Y160.430 E0.01676
G1 X119.526 Y109.971 E2.24014
G1 X118.992 Y109.971 E0.01676
G1 X169.451 Y160.430 E2.24015
M73 P1 R260
G1 X168.917 Y160.430 E0.01676
G1 X118.458 Y109.971 E2.24015
G1 X117.924 Y109.971 E0.01676
G1 X168.383 Y160.430 E2.24015
G1 X167.849 Y160.430 E0.01676
G1 X117.391 Y109.971 E2.24015
G1 X116.857 Y109.971 E0.01676
G1 X167.316 Y160.430 E2.24015
G1 X166.782 Y160.430 E0.01676
G1 X116.323 Y109.971 E2.24015
G1 X115.789 Y109.971 E0.01676
G1 X166.248 Y160.430 E2.24015
G1 X165.714 Y160.430 E0.01676
G1 X115.255 Y109.971 E2.24015
G1 X114.721 Y109.971 E0.01676
G1 X165.180 Y160.430 E2.24015
G1 X164.646 Y160.430 E0.01676
G1 X114.187 Y109.971 E2.24015
G1 X113.653 Y109.971 E0.01676
G1 X164.112 Y160.430 E2.24015
M73 P2 R260
M73 Q2 S262
G1 X163.578 Y160.430 E0.01676
G1 X113.119 Y109.971 E2.24015
G1 X112.585 Y109.971 E0.01676
G1 X163.044 Y160.430 E2.24015
G1 X162.510 Y160.430 E0.01676
G1 X112.051 Y109.971 E2.24016
G1 X111.517 Y109.971 E0.01676
G1 X161.976 Y160.430 E2.24016
M73 Q2 S261
G1 X161.442 Y160.430 E0.01676
G1 X110.983 Y109.971 E2.24016
G1 X110.449 Y109.971 E0.01676
G1 X160.909 Y160.430 E2.24016
M73 P2 R259
G1 X160.375 Y160.430 E0.01676
G1 X109.915 Y109.971 E2.24016
G1 X109.381 Y109.971 E0.01676
G1 X159.841 Y160.430 E2.24016
G1 X159.307 Y160.430 E0.01676
G1 X108.848 Y109.971 E2.24016
G1 X108.314 Y109.971 E0.01676
G1 X158.773 Y160.430 E2.24016
G1 X158.239 Y160.430 E0.01676
G1 X107.780 Y109.971 E2.24016
G1 X107.246 Y109.971 E0.01676
G1 X157.705 Y160.430 E2.24016
G1 X157.171 Y160.430 E0.01676
G1 X106.712 Y109.971 E2.24016
G1 X106.178 Y109.971 E0.01676
G1 X156.637 Y160.430 E2.24016
G1 X156.103 Y160.430 E0.01676
G1 X105.644 Y109.971 E2.24016
G1 X105.110 Y109.971 E0.01676
G1 X155.569 Y160.430 E2.24017
G1 X155.035 Y160.430 E0.01676
G1 X104.576 Y109.971 E2.24017
G1 X104.042 Y109.971 E0.01676
G1 X154.501 Y160.430 E2.24017
G1 X153.968 Y160.430 E0.01676
G1 X103.508 Y109.971 E2.24017
G1 X102.974 Y109.971 E0.01676
G1 X153.434 Y160.430 E2.24017
G1 X152.900 Y160.430 E0.01676
G1 X102.440 Y109.971 E2.24017
M73 Q2 S260
G1 X101.906 Y109.971 E0.01676
G1 X152.366 Y160.430 E2.24017
G1 X151.832 Y160.430 E0.01676
G1 X101.372 Y109.971 E2.24017
M73 P2 R258
G1 X100.839 Y109.971 E0.01676
G1 X151.298 Y160.430 E2.24017
G1 X150.764 Y160.430 E0.01676
G1 X100.305 Y109.971 E2.24017
G1 X99.771 Y109.971 E0.01676
G1 X150.230 Y160.430 E2.24017
G1 X149.696 Y160.430 E0.01676
G1 X99.237 Y109.971 E2.24017
G1 X98.703 Y109.971 E0.01676
G1 X149.162 Y160.430 E2.24017
G1 X148.628 Y160.430 E0.01676
G1 X98.169 Y109.971 E2.24018
G1 X97.635 Y109.971 E0.01676
G1 X148.094 Y160.430 E2.24018
G1 X147.561 Y160.430 E0.01676
G1 X97.101 Y109.971 E2.24018
G1 X96.567 Y109.970 E0.01676
G1 X147.027 Y160.430 E2.24018
G1 X146.493 Y160.430 E0.01676
G1 X96.033 Y109.970 E2.24018
G1 X95.499 Y109.970 E0.01676
